flaticon/arrows/drag-11.svg

<svg xmlns="http://www.w3.org/2000/svg" width="32" height="32" viewBox="0 0 24 24">
    <path d="M 22.664062 8.769531 C 20.882812 6.988281 17.988281 6.988281 16.207031 8.769531 C 15.421875 9.554688 14.984375 10.558594 14.890625 11.585938 L 1.417969 11.585938 L 6.152344 6.847656 C 6.316406 6.6875 6.316406 6.425781 6.152344 6.261719 C 5.992188 6.097656 5.726562 6.097656 5.566406 6.261719 L 0.121094 11.707031 C 0.0820312 11.746094 0.0507812 11.789062 0.03125 11.839844 C -0.0117188 11.941406 -0.0117188 12.058594 0.03125 12.160156 C 0.0507812 12.210938 0.0820312 12.257812 0.121094 12.292969 L 5.566406 17.738281 C 5.648438 17.820312 5.753906 17.859375 5.859375 17.859375 C 5.964844 17.859375 6.070312 17.820312 6.152344 17.738281 C 6.316406 17.574219 6.316406 17.3125 6.152344 17.152344 L 1.417969 12.414062 L 14.890625 12.414062 C 14.984375 13.441406 15.421875 14.445312 16.207031 15.230469 C 17.097656 16.121094 18.265625 16.566406 19.433594 16.566406 C 20.605469 16.566406 21.773438 16.121094 22.664062 15.230469 C 24.445312 13.449219 24.445312 10.550781 22.664062 8.769531 Z M 22.078125 14.640625 C 20.621094 16.097656 18.25 16.097656 16.792969 14.640625 C 15.335938 13.183594 15.335938 10.8125 16.792969 9.359375 C 17.519531 8.628906 18.476562 8.265625 19.433594 8.265625 C 20.390625 8.265625 21.347656 8.628906 22.078125 9.359375 C 23.535156 10.816406 23.535156 13.1875 22.078125 14.640625 Z M 22.078125 14.640625"/>
</svg>

<svg xmlns="http://www.w3.org/2000/svg" width="32" height="32" viewBox="0 0 24 24">
    <path d="M22.664 8.77a4.57 4.57 0 0 0-6.457 0 4.555 4.555 0 0 0-1.316 2.816H1.418l4.734-4.738a.41.41 0 0 0 0-.586.41.41 0 0 0-.586 0L.121 11.707a.414.414 0 0 0 0 .586l5.445 5.445a.41.41 0 0 0 .293.121.41.41 0 0 0 .293-.12.41.41 0 0 0 0-.587l-4.734-4.738h13.473a4.555 4.555 0 0 0 4.543 4.152c1.171 0 2.34-.445 3.23-1.336a4.574 4.574 0 0 0 0-6.46zm-.586 5.87a3.742 3.742 0 0 1-5.285 0 3.737 3.737 0 0 1 5.285-5.28 3.737 3.737 0 0 1 0 5.28zm0 0"/>
</svg>
